file/dreamweaver.svg

<svg clip-rule="evenodd" fill-rule="evenodd" stroke-linejoin="round" stroke-miterlimit="1.41421" viewBox="0 0 560 400" xmlns="http://www.w3.org/2000/svg"><g transform="matrix(1.125 0 0 1.125 145 68.3755)"><path d="m10 10h220v214h-220z" fill="#072600"/><g fill="#35fa00"><path d="m0 0v234h240.001v-234zm10 10h220.001v214h-220.001z"/><path d="m31.25 55.085c0-.825.165-1.155 1.155-1.32 3.795-.165 14.695-.495 25.915-.495 33.495 0 50.16 21.615 50.16 53.295 0 44.055-28.875 57.42-51.15 57.42-8.415 0-20.635-.165-25.09-.33-.66 0-.99-.494-.99-1.32zm18 92.73c2.805.165 5.28.33 8.415.33 18.48 0 32.17-13.035 32.335-41.085.165-27.39-14.02-37.95-31.675-37.95-3.465 0-6.271.165-9.075.33zm126.877 15.686c-1.154 0-1.484-.445-1.649-1.436-4.95-27.555-9.075-47.035-10.89-60.564h-.165c-2.145 12.209-6.105 32.515-12.705 60.729-.33.989-.66 1.271-1.485 1.271h-16.17c-1.155 0-1.485-.166-1.815-1.156l-17.656-78.775c-.165-.66.165-1.32 1.155-1.32h16.17c.66 0 1.155.23 1.32.89 6.271 35.475 8.91 53.85 9.9 61.11h.66c1.154-8.58 4.62-26.461 12.045-60.78.33-.99.33-1.22 1.319-1.22h16.995c.825 0 .99.4 1.155 1.225 5.775 32.505 9.57 53.025 10.561 61.275h.494c1.65-10.561 3.795-24.811 10.891-61.44.165-.66.33-1.06 1.154-1.06h15.181c.659 0 1.155.33.825 1.155l-19.636 78.939c-.165.826-.33 1.156-1.484 1.156h-16.17z"/></g></g></svg>

<?xml version="1.0" encoding="UTF-8" standalone="no"?>
<!DOCTYPE svg PUBLIC "-//W3C//DTD SVG 1.1//EN" "http://www.w3.org/Graphics/SVG/1.1/DTD/svg11.dtd">
<svg width="100%" height="100%" viewBox="0 0 560 400" version="1.1" xmlns="http://www.w3.org/2000/svg" xmlns:xlink="http://www.w3.org/1999/xlink" xml:space="preserve" xmlns:serif="http://www.serif.com/" style="fill-rule:evenodd;clip-rule:evenodd;stroke-linejoin:round;stroke-miterlimit:1.41421;">
    <g transform="matrix(1.125,0,0,1.125,145,68.3755)">
        <rect x="10" y="10" width="220" height="214" style="fill:rgb(7,38,0);"/>
        <path d="M0,0L0,234L240.001,234L240.001,0L0,0ZM10,10L230.001,10L230.001,224L10,224L10,10Z" style="fill:rgb(53,250,0);"/>
        <path d="M31.25,55.085C31.25,54.26 31.415,53.93 32.405,53.765C36.2,53.6 47.1,53.27 58.32,53.27C91.815,53.27 108.48,74.885 108.48,106.565C108.48,150.62 79.605,163.985 57.33,163.985C48.915,163.985 36.695,163.82 32.24,163.655C31.58,163.655 31.25,163.161 31.25,162.335L31.25,55.085ZM49.25,147.815C52.055,147.98 54.53,148.145 57.665,148.145C76.145,148.145 89.835,135.11 90,107.06C90.165,79.67 75.98,69.11 58.325,69.11C54.86,69.11 52.054,69.275 49.25,69.44L49.25,147.815ZM176.127,163.501C174.973,163.501 174.643,163.056 174.478,162.065C169.528,134.51 165.403,115.03 163.588,101.501L163.423,101.501C161.278,113.71 157.318,134.016 150.718,162.23C150.388,163.219 150.058,163.501 149.233,163.501L133.063,163.501C131.908,163.501 131.578,163.335 131.248,162.345L113.592,83.57C113.427,82.91 113.757,82.25 114.747,82.25L130.917,82.25C131.577,82.25 132.072,82.48 132.237,83.14C138.508,118.615 141.147,136.99 142.137,144.25L142.797,144.25C143.951,135.67 147.417,117.789 154.842,83.47C155.172,82.48 155.172,82.25 156.161,82.25L173.156,82.25C173.981,82.25 174.146,82.65 174.311,83.475C180.086,115.98 183.881,136.5 184.872,144.75L185.366,144.75C187.016,134.189 189.161,119.939 196.257,83.31C196.422,82.65 196.587,82.25 197.411,82.25L212.592,82.25C213.251,82.25 213.747,82.58 213.417,83.405L193.781,162.344C193.616,163.17 193.451,163.5 192.297,163.5L176.127,163.5L176.127,163.501Z" style="fill:rgb(53,250,0);"/>
    </g>
</svg>
